X:13
T:The Capita me
Z:Jack Campin - http://www.campin.me.uk
S:Blaikie MS (NLS MS.1578) p5, Blaikie #12
M:C|
L:1/8
V:1 midi program 1 74
V:2 midi program 1 46 bass middle = d transpose -24
Q:1/2=100
K:G
[V:1] B2|GABG E2D2|F2A2 A2GE|GABG E2 D2|G2B2 B2
[V:2] z2|G2g2 G2g2|d2D2 d2z2|G2g2 c'2b2|g2G2 G2
%
[V:1] AG|c2c2 d3 e|gedB A3 G|GABG E2 D2|G2B2 B2||
[V:2] z2|e2e2 d2c2|c2G2 d2z2|G2g2 c2 B2|G2g2 G2||
%
[V:1] A2|GABG EGED|F2A2 A2GE|GABG EG`ED|G2B2 B2
[V:2] z2|G2z2 c2z2|d2D2 D2z2|g2z2 c'2z2|b2g2 g2
%
[V:1] AG|c2c2 d3 e|gedB A4  |gdBG EG`ED|G2B2 B2|]
[V:2] z2|e2e2 d2c2|c2G2 d4  |G2B2 c2 d2|G2g2 G2|]
W:Transcription (c) Jack Campin 2009, no mirroring or republication without permission

